X: 28377
T: Muineira De Poio
R: jig
M: 6/8
K: Fmajor
B|BAB G2B|AGA F2A|GEG FDF|GEC C2A|
|:BAB G2B|AGA ~F3|~G3 FDF|GEC C3:|
BAB DFB|AGA CFA|GEG FDF|GEC C3||
K: C
|:FAG EGF|DFE ~C3|GEG FEF|GEC ~C3|
FAG EGF|DGE C3|AGE GFD|C3 C3:|
|:FD=B, =B,D=B,|GEC C=B,C|AGE GF=B,|D2C CEC|
FD=B, =B,D=B,|GEC C=B,C|AGE GFD|C3 CEC:|

